X: 23
T: Missa [Ad fugam] / Gloria
N: Derived from Ort1006b-Missa_Ad_fugam-Gloria.krn
C: Marbrianus de Orto
%%abc-version 2.0
%%abcx-abcm2ps-target-version 5.9.1 (29 Sep 2008)
%%abc-creator hum2abc beta
%%abcx-conversion-date 2019/02/17 07:28:37
%%abc-edited-by Jesse Rodin
%%abc-edited-by Jesse Rodin 8/8/2013
%%abcx-initial-encoding-date 2013/08/09/
%%humdrum-veritas 582812822
%%humdrum-veritas-data 103910257
%%linebreak <none>
%%barnumbers 0
L: 1/4
M: 3/1
Q: 1/2=120
%%staves [1 2 3 4]
V: 1 clef=treble
V: 2 clef=treble-8
V: 3 clef=treble-8
V: 4 clef=bass
K: F
[V:1] z12 | 
[V:2] z4z4d4 | 
[V:3] z12 | 
[V:4] F,4G,2A,2B,4 | 
[V:1] z12 | 
[V:2] e2f2B4c2d2 | 
[V:3] z12 | 
[V:4] A,4G,4F,3E,/D,/ | 
[V:1] G4A2B2c3B/A/ | 
[V:2] _e4d4z2c2 | 
[V:3] z12 | 
[V:4] C,4z2G,,2A,,3B,, | 
[V:1] G4B4A4 | 
[V:2] _e3d/c/B4c4 | 
[V:3] c4d2_e2f3_e/d/ | 
[V:4] C,3B,,/A,,/G,,2G,2F,2F,2 | 
[V:1] z2G2G2G2A2GF | 
[V:2] z4c4f3e/d/ | 
[V:3] c4_e4d4 | 
[V:4] F,2E,2C,4z2D,2 | 
[V:1] E4z4F4 | 
[V:2] c2A2e4d4 | 
[V:3] z2c2c2c2d2cB | 
[V:4] A,,4A,,4B,,3C, | 
[V:1] F4G4F2D2 | 
[V:2] d4G4d4 | 
[V:3] A4z4B4 | 
[V:4] D,4_E,4z2B,,2 | 
[V:1] F2G2E4z2D2 | 
[V:2] z4G2c2dcBA | 
[V:3] B4c4B2G2 | 
[V:4] D,2_E,2C,4G,3F, | 
[V:1] G4F4G4 | 
[V:2] G2_e2d4G2c2- | 
[V:3] B2c2A4z2G2 | 
[V:4] E,D,C,2D,4C,3D, | 
[V:1] z4z2D2E3F | 
[V:2] c2A2d2G6- | 
[V:3] c4B4c4 | 
[V:4] E,2F,2G,4C,3D, | 
[V:1] G2E2D4z2F2 | 
[V:2] G2c2B4c3d | 
[V:3] z4z2G2A3B | 
[V:4] E,3C,G,4F,4 | 
[V:1] G2A2B4G4 | 
[V:2] e2f2g3f_e2d2 | 
[V:3] c2A2G4z2B2 | 
[V:4] z4_E,6G,2 | 
[V:1] z4c3BAGA2- | 
[V:2] f4g4z2f2- | 
[V:3] c2d2_e4c4 | 
[V:4] F,3_E,/D,/C,4F,3E, | 
[V:1] AGF_ED4z4 | 
[V:2] f_ed3cB3A/G/F2- | 
[V:3] z4f3_edcd2- | 
[V:4] D,3C,B,,4z2B,,2 | 
[V:1] z12 | 
[V:2] F2F2G2B4G2 | 
[V:3] dcBAG4z4 | 
[V:4] D,4_E,3D,C,B,,C,2- | 
[V:1] z12 | 
[V:2] c3BAGA4B2- | 
[V:3] z12 | 
[V:4] C,B,,A,,G,,C,4D,4 | 
[V:1] z4z4D2D2 | 
[V:2] B2G4^F2G4 | 
[V:3] z12 | 
[V:4] G,,2B,,2A,,4G,,2B,,2 | 
[V:1] G4F2F2E3D | 
[V:2] z2G2A2B2c3B | 
[V:3] z4z4G2G2 | 
[V:4] C,2_E,2D,2D,2C,4 | 
[V:1] EFG3F/E/D2C4 | 
[V:2] A2G4G2E3D | 
[V:3] c4B2B2A3G | 
[V:4] C,4G,,4A,,4 | 
[V:1] z4G4A3B | 
[V:2] EFG4c2d2c2 | 
[V:3] ABc3B/A/G2F4 | 
[V:4] C,4E,4D,2F,2- | 
[V:1] c2BAG4F3G | 
[V:2] A4z4B2A2 | 
[V:3] z4c4d3_e | 
[V:4] F,2F,2E,4z2D,2- | 
[V:1] A2B3A/G/A2D4 | 
[V:2] F4z2F2G2FG | 
[V:3] f2_edc4B3c | 
[V:4] D,2B,,2F,4z2D,2- | 
[V:1] z4z2F2G2B2 | 
[V:2] ABc2A2A2BGg2- | 
[V:3] d2_e3d/c/d2G4 | 
[V:4] D,2C,2F,4_E,3G, | 
[V:1] A4G4z2c2- | 
[V:2] g2^f2g8 | 
[V:3] z4z2B2c2_e2 | 
[V:4] D,4_E,3D,C,4 | 
[V:1] c2B2c4A4 | 
[V:2] g3fedc4F2 | 
[V:3] d4c4z2f2- | 
[V:4] G,4C,4F,2D,2 | 
[V:1] z4z2A4G2 | 
[V:2] G2A2B2c2B2AG | 
[V:3] f2_e2f4d4 | 
[V:4] C,4B,,2F,2G,4 | 
[V:1] A4F4z2G2- | 
[V:2] F3GA2B2A2G2 | 
[V:3] z4z2d4c2 | 
[V:4] D,8D,2_E,2 | 
[V:1] G2F2G2FED2C2 | 
[V:2] A4G4F4 | 
[V:3] d4B4z2c2- | 
[V:4] D,4G,,4B,,2A,,2 | 
[V:1] D4CDEFG2A2 | 
[V:2] G4z4d4- | 
[V:3] c2B2c2BAG2F2 | 
[V:4] G,,4C,4z4 | 
[V:1] B4A4z4 | 
[V:2] d4f4e2f2 | 
[V:3] G4FGABc2d2 | 
[V:4] z4D,4C,2B,,2 | 
[V:1] G3GG2G2F2G2 | 
[V:2] c4B2d4B2 | 
[V:3] _e4d4z4 | 
[V:4] C,4G,,4D,2E,2 | 
[V:1] A2GFE2E2D2A2- | 
[V:2] A4z2c2f4- | 
[V:3] c3cc2c2B2c2 | 
[V:4] F,3G,A,4z2F,2- | 
[V:1] A2G4^F2G4 | 
[V:2] f2e2d4B3A | 
[V:3] d2cBA2A2G2d2- | 
[V:4] F,2G,2D,4G,2B,2- | 
[V:1] z12 | 
[V:2] G2A2F2B4A2 | 
[V:3] d2c4B2c4 | 
[V:4] B,2F,4G,2F,4 | 
[V:1] z4z4A4 | 
[V:2] B2d4c2d2f2- | 
[V:3] z12 | 
[V:4] G,2D,2_E,4D,3=E, | 
[V:1] A2A2c4F2F2 | 
[V:2] fec3d_e2d4 | 
[V:3] z4z4d4 | 
[V:4] F,4C,4D,4 | 
[V:1] G2F2D4z2F2 | 
[V:2] B6A2G2F2 | 
[V:3] d2d2f4B2B2 | 
[V:4] G,,2B,,3C,D,2_E,2D,2 | 
[V:1] E2D4C2F2G2 | 
[V:2] G2z2z4z4 | 
[V:3] c2B2G4z2B2 | 
[V:4] C,2D,2_E,4D,2G,2 | 
[V:1] A2B2c3B/A/G4 | 
[V:2] z12 | 
[V:3] A2G4F2B2c2 | 
[V:4] F,2G,2A,2G,F,E,4 | 
[V:1] F12 ||  
[V:2] A12 ||  
[V:3] d12 ||  
[V:4] D,12 ||  
[V:1]  [K:F] [K:clef=treble][M:2/1]z8 | 
[V:2]  [K:F] [K:clef=treble-8][M:2/1]z8 | 
[V:3]  [K:F] [K:clef=treble-8][M:2/1]z8 | 
[V:4]  [K:F] [K:clef=bass][M:2/1]G,6F,_E, | 
[V:1] z8 | 
[V:2] z8 | 
[V:3] z8 | 
[V:4] D,2F,2_E,2D,C, | 
[V:1] z8 | 
[V:2] d6cB | 
[V:3] z8 | 
[V:4] B,,4z4 | 
[V:1] z8 | 
[V:2] A2c2B2AG | 
[V:3] z8 | 
[V:4] F,4G,4 | 
[V:1] z8 | 
[V:2] F4z2d2- | 
[V:3] z8 | 
[V:4] A,3CB,2A,G, | 
[V:1] z8 | 
[V:2] d2cBA4 | 
[V:3] z8 | 
[V:4] F,2G,4^F,2 | 
[V:1] z8 | 
[V:2] G2B4A2 | 
[V:3] z8 | 
[V:4] G,4D,4 | 
[V:1] z8 | 
[V:2] G2B4G2 | 
[V:3] z8 | 
[V:4] z2_E,2D,2E,2- | 
[V:1] z8 | 
[V:2] c4B2A2 | 
[V:3] z8 | 
[V:4] E,2C,2D,4 | 
[V:1] z8 | 
[V:2] d4G2c2 | 
[V:3] z8 | 
[V:4] G,,2B,,4A,,2 | 
[V:1] z8 | 
[V:2] B2d3cB2 | 
[V:3] z8 | 
[V:4] G,,2B,,4G,,2 | 
[V:1] z8 | 
[V:2] A2G4A2- | 
[V:3] z8 | 
[V:4] C,4B,,2A,,2 | 
[V:1] z8 | 
[V:2] AGF2E2D2- | 
[V:3] z8 | 
[V:4] D,4C,2D,2- | 
[V:1] z8 | 
[V:2] D2d4c2 | 
[V:3] z8 | 
[V:4] D,2F,2E,4 | 
[V:1] z8 | 
[V:2] d2cBA2B2- | 
[V:3] z8 | 
[V:4] D,2F,4E,2 | 
[V:1] z8 | 
[V:2] B2A2F2B2- | 
[V:3] z8 | 
[V:4] D,2F,4B,,2 | 
[V:1] z8 | 
[V:2] B2c2B2_e2- | 
[V:3] z8 | 
[V:4] _E,4D,2C,2 | 
[V:1] z8 | 
[V:2] e2d2_e2c2- | 
[V:3] z8 | 
[V:4] G,4C,2F,2 | 
[V:1] z8 | 
[V:2] c2B2G2B2- | 
[V:3] z8 | 
[V:4] _E,2G,3F,E,2 | 
[V:1] z8 | 
[V:2] B2c2A4 | 
[V:3] z8 | 
[V:4] D,2C,4D,2- | 
[V:1] z8 | 
[V:2] z2F4B2- | 
[V:3] z8 | 
[V:4] D,C,B,,2A,,2G,,2- | 
[V:1] z8 | 
[V:2] B2AGA2d2- | 
[V:3] z8 | 
[V:4] G,,2G,4F,2 | 
[V:1] z8 | 
[V:2] dcBAB2G2- | 
[V:3] z8 | 
[V:4] G,2D,4B,2- | 
[V:1] z8 | 
[V:2] G2g4^f2 | 
[V:3] z8 | 
[V:4] B,2A,G,A,4 | 
[V:1] z8 ||  
[V:2] g8 ||  
[V:3] z8 ||  
[V:4] G,8 ||  
[V:1]  [K:F] [K:clef=treble][M:2/1]z8 | 
[V:2]  [K:F] [K:clef=treble-8][M:2/1]d6cB | 
[V:3]  [K:F] [K:clef=treble-8][M:2/1]z8 | 
[V:4]  [K:F] [K:clef=bass][M:2/1]G,8 | 
[V:1] z8 | 
[V:2] c2BAG4 | 
[V:3] z8 | 
[V:4] _E,8 | 
[V:1] z8 | 
[V:2] F6GA | 
[V:3] z8 | 
[V:4] D,8 | 
[V:1] z8 | 
[V:2] B4A4 | 
[V:3] z8 | 
[V:4] D,4D,4 | 
[V:1] z4F4 | 
[V:2] z4d4- | 
[V:3] z8 | 
[V:4] z4D,4 | 
[V:1] F4F4 | 
[V:2] d2c2B2A2 | 
[V:3] z8 | 
[V:4] D,4D,4 | 
[V:1] F4G4- | 
[V:2] A4c3B | 
[V:3] z8 | 
[V:4] D,4C,4 | 
[V:1] G2FED4- | 
[V:2] G4F4 | 
[V:3] z4B4 | 
[V:4] _E,4B,,4- | 
[V:1] D2F3ED2- | 
[V:2] G2D2F2G2 | 
[V:3] B4B4 | 
[V:4] B,,4B,,4 | 
[V:1] D2CB,A,4 | 
[V:2] D2d2c2f2- | 
[V:3] B4c4- | 
[V:4] B,,4F,4 | 
[V:1] z4D4 | 
[V:2] fedcB2G2 | 
[V:3] c2BAG4- | 
[V:4] F,4G,2B,2- | 
[V:1] D4G4- | 
[V:2] d4z4 | 
[V:3] G2B3AG2- | 
[V:4] B,A,G,2G,,3A,, | 
[V:1] G4F4 | 
[V:2] z4A4- | 
[V:3] G2F_ED4 | 
[V:4] B,,2C,2D,4 | 
[V:1] z2F2E2D2 | 
[V:2] A2B2c2d2 | 
[V:3] z4G4 | 
[V:4] D,4C,2B,,2 | 
[V:1] G6E2 | 
[V:2] B2G4c2- | 
[V:3] G4c4- | 
[V:4] _E,4C,4 | 
[V:1] A4z4 | 
[V:2] c2A2d3c | 
[V:3] c4B4 | 
[V:4] F,4B,,4 | 
[V:1] G4F2G2- | 
[V:2] BAG2c2B2 | 
[V:3] z2B2A2G2 | 
[V:4] _E,4z2E,2- | 
[V:1] G2FEA4 | 
[V:2] G4z2c2 | 
[V:3] c6A2 | 
[V:4] E,2C,2F,4 | 
[V:1] z2B2A2B2- | 
[V:2] f2d2f2g2 | 
[V:3] d4z4 | 
[V:4] D,2G,2F,2E,2 | 
[V:1] B2A2B2G2 | 
[V:2] f4d2e2 | 
[V:3] c4B2c2- | 
[V:4] F,4z4 | 
[V:1] A4F4 | 
[V:2] f2F3GAB | 
[V:3] c2BAd4 | 
[V:4] F,4D,4 | 
[V:1] G4z4 | 
[V:2] c4z4 | 
[V:3] z2_e2d2_e2- | 
[V:4] C,4G,4- | 
[V:1] z8 | 
[V:2] B4cBAG | 
[V:3] e2d2_e2c2 | 
[V:4] G,4C,2F,2- | 
[V:1] z8 | 
[V:2] F2f2d3e | 
[V:3] d4B4 | 
[V:4] F,2D,2G,4 | 
[V:1] A6GF | 
[V:2] f4z2F2 | 
[V:3] c4z4 | 
[V:4] F,8 | 
[V:1] E4F4 | 
[V:2] G4A4 | 
[V:3] z8 | 
[V:4] C,4z2D,2 | 
[V:1] E2D2E4 | 
[V:2] z2d4c2 | 
[V:3] z8 | 
[V:4] A,,2B,,2A,,4 | 
[V:1] z2D3EF2- | 
[V:2] d2f4d2- | 
[V:3] d6cB | 
[V:4] D,8- | 
[V:1] FGA4G2 | 
[V:2] d8- | 
[V:3] A4B4 | 
[V:4] D,8- | 
[V:1] F2G4^F2 | 
[V:2] d8- | 
[V:3] A2G2A4 | 
[V:4] D,8 | 
[V:1] G8 ||  
[V:2] d8 ||  
[V:3] z2G6 ||  
[V:4] G,,8 ||  
[V:1]  [K:F] [K:clef=treble][M:3/1]z12 | 
[V:2]  [K:F] [K:clef=treble-8][M:3/1]G2B2c2d4B2 | 
[V:3]  [K:F] [K:clef=treble-8][M:3/1]z12 | 
[V:4]  [K:F] [K:clef=bass][M:3/1]z6G,2G,2G,2 | 
[V:1] D2D2D2G4E2 | 
[V:2] G4B2c4c2 | 
[V:3] z12 | 
[V:4] B,4G,2_E,2C,4 | 
[V:1] D4z2z4A2 | 
[V:2] B2G2g4e2f2 | 
[V:3] G2G2G2c4A2 | 
[V:4] z6C,4D,2 | 
[V:1] B2B2B2c4A2 | 
[V:2] g4G2A4A2 | 
[V:3] G4z2z4d2 | 
[V:4] G,,2G,4F,4F,2 | 
[V:1] G4z2A4A2- | 
[V:2] c4B2c2d2A2 | 
[V:3] _e2_e2_e2f4d2 | 
[V:4] C,4G,2F,2D,4 | 
[V:1] A2G4F4z2 | 
[V:2] z2c2G2A2BAGF | 
[V:3] c4z2d4d2- | 
[V:4] F,2C,2_E,2D,2B,,4 | 
[V:1] z12 | 
[V:2] G4F2z2G3A | 
[V:3] d2c4B4z2 | 
[V:4] G,,2A,,4G,,2B,,2C,2 | 
[V:1] z12 | 
[V:2] Bcd3BB4A2 | 
[V:3] z12 | 
[V:4] D,3E,F,2D,2C,4 | 
[V:1] D2F2G2A4G2 | 
[V:2] B4B2F4B2- | 
[V:3] z12 | 
[V:4] B,,4G,,2D,2z4 | 
[V:1] G4^F2G4z2 | 
[V:2] B2G2A2G2g3f | 
[V:3] G2B2c2d4c2 | 
[V:4] z4z2G,4E,2 | 
[V:1] z4G2A3Bc2- | 
[V:2] f4e2f4e2 | 
[V:3] c4B2c4z2 | 
[V:4] F,2G,4F,4C,2 | 
[V:1] cBA2G2F2z4 | 
[V:2] c4z2A2B2A2 | 
[V:3] z4c2d3_ef2- | 
[V:4] F,4E,2D,4D,2 | 
[V:1] DEFGA2B4c2 | 
[V:2] G2F3EG2z4 | 
[V:3] f_ed2c2B2z4 | 
[V:4] B,,4A,,2G,,2G,2A,2 | 
[V:1] d3cBAG2z4 | 
[V:2] z6z4c2 | 
[V:3] GABcd2_e4f2 | 
[V:4] B,4G,2C3B,A,2 | 
[V:1] z6G2A4 | 
[V:2] d2cdG2G2c2A2 | 
[V:3] g3f_edc2z4 | 
[V:4] G,F,E,D,C,2E,2F,4 | 
[V:1] F2E4z2A3G | 
[V:2] d4c2f4f2 | 
[V:3] z4z2c2d4 | 
[V:4] D,2A,3G,F,E,D,2F,2 | 
[V:1] G4^F2G6 |]  
[V:2] d12 |]  
[V:3] B2A4z2d4 |]  
[V:4] G,2D,4G,,6 |]  



